svg/material-icons/tips_and_updates/materialiconsround/20px.svg

<svg xmlns="http://www.w3.org/2000/svg" width="20" height="20" viewBox="0 0 20 20"><path d="M4.5 14.75c0-.41.34-.75.75-.75h4.5c.41 0 .75.34.75.75s-.34.75-.75.75h-4.5c-.41 0-.75-.34-.75-.75zm9-6.75c0 2.09-1.07 3.93-2.69 5H4.19A5.983 5.983 0 0 1 1.5 8c0-3.31 2.69-6 6-6s6 2.69 6 6zm-6 10c.83 0 1.5-.67 1.5-1.5H6c0 .83.67 1.5 1.5 1.5zm11-10 .47-1.03L20 6.5l-1.03-.47L18.5 5l-.47 1.03L17 6.5l1.03.47L18.5 8zm-3-3 .78-1.72L18 2.5l-1.72-.78L15.5 0l-.78 1.72L13 2.5l1.72.78L15.5 5z"/></svg>

<svg xmlns="http://www.w3.org/2000/svg" enable-background="new 0 0 20 20" height="20" viewBox="0 0 20 20" width="20"><rect fill="none" height="20" width="20"/><path d="M4.5,14.75C4.5,14.34,4.84,14,5.25,14h4.5c0.41,0,0.75,0.34,0.75,0.75c0,0.41-0.34,0.75-0.75,0.75h-4.5 C4.84,15.5,4.5,15.16,4.5,14.75z M13.5,8c0,2.09-1.07,3.93-2.69,5H4.19C2.57,11.93,1.5,10.09,1.5,8c0-3.31,2.69-6,6-6 S13.5,4.69,13.5,8z M7.5,18C8.33,18,9,17.33,9,16.5H6C6,17.33,6.67,18,7.5,18z M18.5,8l0.47-1.03L20,6.5l-1.03-0.47L18.5,5 l-0.47,1.03L17,6.5l1.03,0.47L18.5,8z M15.5,5l0.78-1.72L18,2.5l-1.72-0.78L15.5,0l-0.78,1.72L13,2.5l1.72,0.78L15.5,5z"/></svg>
